public/library/planar-icon-dark.svg

<svg width="46" height="46" viewBox="0 0 46 46" fill="none" xmlns="http://www.w3.org/2000/svg">
<path d="M45.2834 22.9986C45.2834 10.6916 35.3066 0.714844 22.9997 0.714844C10.6927 0.714844 0.715942 10.6916 0.715942 22.9986C0.715942 35.3055 10.6927 45.2823 22.9997 45.2823C35.3066 45.2823 45.2834 35.3055 45.2834 22.9986Z" fill="black"/>
<path d="M12.7462 8.40536C11.9671 8.11931 11 8.47688 11 9.04898V22.1501V36.5642C11 37.1363 11.9716 37.4939 12.7462 37.2078L20.6934 34.2787C21.0516 34.1471 21.2754 33.9011 21.2754 33.6351V27.8368C21.2754 27.2647 22.247 26.9071 23.0216 27.1932L30.9644 30.1252C31.327 30.2596 31.7748 30.2568 32.1374 30.1252L41.1189 26.7555C41.4726 26.6211 41.692 26.3779 41.692 26.1148V19.487C41.692 19.2209 41.4681 18.9749 41.11 18.8434L12.7462 8.40536ZM29.8092 28.6635L13.7804 22.7966C12.9924 22.5077 13.0014 21.784 13.7938 21.5008L20.6441 19.0636C21.0113 18.932 21.2396 18.686 21.2396 18.4171L21.271 13.9462C21.271 13.3741 22.2425 13.0194 23.0171 13.3054L30.9733 16.2432C31.3315 16.3747 31.5554 16.6207 31.5554 16.8868V28.017C31.5554 28.5891 30.5883 28.9467 29.8137 28.6635" fill="#F9FF00"/>
</svg>

<svg xmlns="http://www.w3.org/2000/svg" width="46" height="46" fill="none" viewBox="0 0 46 46"><path fill="#000" d="M45.283 22.999C45.283 10.692 35.307.715 23 .715S.716 10.692.716 22.999 10.693 45.282 23 45.282 45.283 35.306 45.283 23"/><path fill="#f9ff00" d="M12.746 8.405C11.967 8.12 11 8.477 11 9.05v27.515c0 .572.972.93 1.746.644l7.947-2.93c.359-.13.582-.377.582-.643v-5.798c0-.572.972-.93 1.747-.644l7.942 2.932c.363.135.81.132 1.173 0l8.982-3.37c.354-.134.573-.377.573-.64v-6.628c0-.266-.224-.512-.582-.644zM29.81 28.663 13.78 22.798c-.788-.29-.779-1.013.014-1.296l6.85-2.437c.367-.132.596-.378.596-.647l.031-4.47c0-.573.971-.928 1.746-.642l7.956 2.938c.358.132.582.378.582.644v11.13c0 .572-.967.93-1.741.646"/></svg>
